src/assets/skills/android-studio.svg

<svg height="100pt" viewBox="0 0 100 100" width="100pt" xmlns="http://www.w3.org/2000/svg"><path d="m0 0h100v100h-100z" fill="#464646"/><ellipse cx="50" cy="45.001515" fill="#92c755" rx="29.884901" ry="30.001515"/><g fill-rule="evenodd"><path d="m53.477 31.082 25.083 22.772s-5.227 19.326-25.793 21.022c0 0-8.068 1.124-16.209-3.064-8.142-4.198 7.505-17.683 7.505-17.683l-.233-15.361 6.128-2.544 3.509-5.142z" fill="#78a44d"/><path d="m52.64 52.889 16.516 28.644 4.856 3.467.456-.954-.255-5.29-17.449-29.853z" fill="#e3e3e3"/><path d="m25.522 84.311.35.35 4.738-3.181 4.856-8.205 3.869-6.986s9.584 5.894 20.45.403c0 0 5.078-2.863 6.35-5.057 0 0 5.11-3.785 5.29-13.835l-5.311-.053s.35 9.764-9.064 14.503c0 0-6.817 3.7-14.789-.35l4.972-8.958-4.156-4.039-17.386 29.948-.148 5.46z" fill="#f2f1f7"/><path d="m41.519 47.334 7.166 7.05s1.824.805 2.884-.35l6.753-6.817-.032-8.004s-.233-2.83-3.403-2.597h-1.473l.053-5.545-6.987.17v5.375s-4.622-1.156-4.908 3.18zm8.428-7.888c2.269 0 4.103 1.824 4.103 4.071 0 2.248-1.834 4.071-4.103 4.071s-4.103-1.823-4.103-4.071c0-2.247 1.834-4.071 4.103-4.071z" fill="#707070"/></g></svg>

<?xml version="1.0" encoding="UTF-8" standalone="no"?><!-- Generator: Gravit.io --><svg xmlns="http://www.w3.org/2000/svg" xmlns:xlink="http://www.w3.org/1999/xlink" style="isolation:isolate" viewBox="0 0 100 100" width="100pt" height="100pt"><rect x="0" y="0" width="100" height="100" transform="matrix(1,0,0,1,0,0)" fill="rgb(70,70,70)"/><g><g><ellipse vector-effect="non-scaling-stroke" cx="50" cy="45.00151501776344" rx="29.884901355150244" ry="30.001515017763438" fill="rgb(146,199,85)"/><path d=" M 53.477 31.082 L 78.56 53.854 C 78.56 53.854 73.333 73.18 52.767 74.876 C 52.767 74.876 44.699 76 36.558 71.812 C 28.416 67.614 44.063 54.129 44.063 54.129 L 43.83 38.768 L 49.958 36.224 L 53.467 31.082 L 53.477 31.082 Z " fill-rule="evenodd" fill="rgb(120,164,77)"/><g><path d=" M 52.64 52.889 L 69.156 81.533 L 74.012 85 L 74.468 84.046 L 74.213 78.756 L 56.764 48.903 L 52.64 52.889 Z " fill-rule="evenodd" fill="rgb(227,227,227)"/><path d=" M 25.522 84.311 L 25.872 84.661 L 30.61 81.48 L 35.466 73.275 L 39.335 66.289 C 39.335 66.289 48.919 72.183 59.785 66.692 C 59.785 66.692 64.863 63.829 66.135 61.635 C 66.135 61.635 71.245 57.85 71.425 47.8 L 66.114 47.747 C 66.114 47.747 66.464 57.511 57.05 62.25 C 57.05 62.25 50.233 65.95 42.261 61.9 L 47.233 52.942 L 43.077 48.903 L 25.691 78.851 L 25.543 84.311 L 25.522 84.311 Z " fill-rule="evenodd" fill="rgb(242,241,247)"/><path d=" M 41.519 47.334 L 48.685 54.384 C 48.685 54.384 50.509 55.189 51.569 54.034 L 58.322 47.217 L 58.29 39.213 C 58.29 39.213 58.057 36.383 54.887 36.616 L 53.414 36.616 L 53.467 31.071 L 46.48 31.241 L 46.48 36.616 C 46.48 36.616 41.858 35.46 41.572 39.796 L 41.519 47.334 Z  M 49.947 39.446 C 52.216 39.446 54.05 41.27 54.05 43.517 C 54.05 45.765 52.216 47.588 49.947 47.588 C 47.678 47.588 45.844 45.765 45.844 43.517 C 45.844 41.27 47.678 39.446 49.947 39.446 Z " fill-rule="evenodd" fill="rgb(112,112,112)"/></g></g></g></svg>
